assets/icons/N21Logo.svg

<svg width="57" height="20" xmlns="http://www.w3.org/2000/svg"><g fill="none" fill-rule="evenodd"><path d="M32.7 20H3.43C1.535 20 0 18.415 0 16.455V3.45C0 1.545 1.495 0 3.335 0h29.38c.91 0 1.785.375 2.425 1.045l6.17 6.4c1.325 1.375 1.33 3.595.015 4.985l-6.18 6.51A3.385 3.385 0 0132.7 20" fill="#CC1A38" fill-rule="nonzero"/><path d="M35.42 9.62c.2-1.075 1.175-1.8 2.27-1.58 1.075.21 1.7 1.255 1.505 2.33-.2 1.095-1.15 1.805-2.225 1.59-1.1-.215-1.75-1.24-1.55-2.34M6.725 16.8H5.04c-.285 0-.425-.15-.425-.445V3.645c0-.295.14-.445.425-.445h1.525c.28 0 .47.1.565.295l4.1 8.015h.08V3.645c0-.295.14-.445.425-.445h1.685c.285 0 .425.15.425.445v12.71c0 .295-.14.445-.425.445h-1.48c-.3 0-.515-.14-.65-.425L7.23 8.51h-.08v7.845c0 .295-.14.445-.425.445M16.235 16.355v-2.01c0-.8.345-1.485 1.025-2.05l3.835-3.3c.625-.52.935-1.085.935-1.69V6.67c0-.44-.1-.75-.3-.945-.205-.19-.535-.285-.99-.285h-.73c-.445 0-.76.095-.94.285-.18.195-.27.505-.27.945v.675c0 .31-.145.465-.435.465H16.59c-.29 0-.435-.155-.435-.465v-.72c0-1.1.3-1.945.895-2.535.6-.595 1.445-.89 2.545-.89h1.58c1.1 0 1.945.295 2.545.89.595.59.895 1.435.895 2.535v.845c0 1.1-.415 2.01-1.25 2.73l-3.92 3.385c-.165.155-.25.325-.25.51v.335h4.985c.29 0 .435.15.435.445v1.48c0 .295-.145.445-.435.445h-7.505c-.29 0-.44-.15-.44-.445M26.155 6.985V5.25c0-.24.095-.42.28-.55l1.71-1.205c.285-.195.53-.295.73-.295h1.5c.265 0 .395.15.395.445v12.71c0 .17-.03.285-.085.35-.055.065-.155.095-.29.095H28.78c-.26 0-.395-.15-.395-.445v-10.3L26.55 7.24c-.265.125-.395.04-.395-.255" fill="#FFF" fill-rule="nonzero"/><path d="M48.62 12.22c-.225.25-.55.375-.98.375h-.81c-.785 0-1.175-.455-1.175-1.365V7.97c0-.91.39-1.365 1.175-1.365h1.99c.095 0 .145.045.145.14v4.41c0 .46-.115.815-.345 1.065zm-1.165 1.38c.73 0 1.215-.275 1.45-.83h.06v.61c0 .145.065.22.195.22h.64c.135 0 .2-.075.2-.22V5.82c0-.145-.065-.22-.2-.22h-3.08c-.655 0-1.17.205-1.545.61-.375.41-.56.98-.56 1.71v3.36c0 .73.185 1.3.56 1.71.375.405.89.61 1.545.61h.735z" fill="#FFF"/><path d="M51.54 13.38v-.295c0-.19.05-.355.15-.49l3.78-5.93v-.06h-3.595c-.145 0-.215-.08-.215-.235v-.55c0-.145.07-.22.215-.22h4.695c.155 0 .23.075.23.22v.515c0 .19-.045.33-.135.425l-3.66 5.775v.06h3.705c.14 0 .215.08.215.235v.55c0 .145-.075.22-.215.22h-4.94c-.155 0-.23-.075-.23-.22" fill="#FFF" fill-rule="nonzero"/></g></svg>

<?xml version="1.0" encoding="UTF-8"?>
<svg width="57px" height="20px" viewBox="0 0 57 20" version="1.1" xmlns="http://www.w3.org/2000/svg" xmlns:xlink="http://www.w3.org/1999/xlink">
    <!-- Generator: Sketch 64 (93537) - https://sketch.com -->
    <title>N21Logo</title>
    <desc>Created with Sketch.</desc>
    <g id="Page-1" stroke="none" stroke-width="1" fill="none" fill-rule="evenodd">
        <g id="mobile-Index" transform="translate(-58.000000, -16.000000)">
            <g id="N21Logo" transform="translate(58.000000, 16.000000)">
                <path d="M32.7,20 L3.43,20 C1.535,20 0,18.415 0,16.455 L0,3.45 C0,1.545 1.495,0 3.335,0 L32.715,0 C33.625,0 34.5,0.375 35.14,1.045 L41.31,7.445 C42.635,8.82 42.64,11.04 41.325,12.43 L35.145,18.94 C34.5,19.615 33.62,20 32.7,20" id="Path" fill="#CC1A38" fill-rule="nonzero"></path>
                <path d="M35.42,9.62 C35.62,8.545 36.595,7.82 37.69,8.04 C38.765,8.25 39.39,9.295 39.195,10.37 C38.995,11.465 38.045,12.175 36.97,11.96 C35.87,11.745 35.22,10.72 35.42,9.62" id="Path" fill="#FFFFFF" fill-rule="nonzero"></path>
                <path d="M6.725,16.8 L5.04,16.8 C4.755,16.8 4.615,16.65 4.615,16.355 L4.615,3.645 C4.615,3.35 4.755,3.2 5.04,3.2 L6.565,3.2 C6.845,3.2 7.035,3.3 7.13,3.495 L11.23,11.51 L11.31,11.51 L11.31,3.645 C11.31,3.35 11.45,3.2 11.735,3.2 L13.42,3.2 C13.705,3.2 13.845,3.35 13.845,3.645 L13.845,16.355 C13.845,16.65 13.705,16.8 13.42,16.8 L11.94,16.8 C11.64,16.8 11.425,16.66 11.29,16.375 L7.23,8.51 L7.15,8.51 L7.15,16.355 C7.15,16.65 7.01,16.8 6.725,16.8" id="Path" fill="#FFFFFF" fill-rule="nonzero"></path>
                <path d="M16.235,16.355 L16.235,14.345 C16.235,13.545 16.58,12.86 17.26,12.295 L21.095,8.995 C21.72,8.475 22.03,7.91 22.03,7.305 L22.03,6.67 C22.03,6.23 21.93,5.92 21.73,5.725 C21.525,5.535 21.195,5.44 20.74,5.44 L20.01,5.44 C19.565,5.44 19.25,5.535 19.07,5.725 C18.89,5.92 18.8,6.23 18.8,6.67 L18.8,7.345 C18.8,7.655 18.655,7.81 18.365,7.81 L16.59,7.81 C16.3,7.81 16.155,7.655 16.155,7.345 L16.155,6.625 C16.155,5.525 16.455,4.68 17.05,4.09 C17.65,3.495 18.495,3.2 19.595,3.2 L21.175,3.2 C22.275,3.2 23.12,3.495 23.72,4.09 C24.315,4.68 24.615,5.525 24.615,6.625 L24.615,7.47 C24.615,8.57 24.2,9.48 23.365,10.2 L19.445,13.585 C19.28,13.74 19.195,13.91 19.195,14.095 L19.195,14.43 L24.18,14.43 C24.47,14.43 24.615,14.58 24.615,14.875 L24.615,16.355 C24.615,16.65 24.47,16.8 24.18,16.8 L16.675,16.8 C16.385,16.8 16.235,16.65 16.235,16.355" id="Path" fill="#FFFFFF" fill-rule="nonzero"></path>
                <path d="M26.155,6.985 L26.155,5.25 C26.155,5.01 26.25,4.83 26.435,4.7 L28.145,3.495 C28.43,3.3 28.675,3.2 28.875,3.2 L30.375,3.2 C30.64,3.2 30.77,3.35 30.77,3.645 L30.77,16.355 C30.77,16.525 30.74,16.64 30.685,16.705 C30.63,16.77 30.53,16.8 30.395,16.8 L28.78,16.8 C28.52,16.8 28.385,16.65 28.385,16.355 L28.385,6.055 L26.55,7.24 C26.285,7.365 26.155,7.28 26.155,6.985" id="Path" fill="#FFFFFF" fill-rule="nonzero"></path>
                <path d="M48.62,12.22 C48.395,12.47 48.07,12.595 47.64,12.595 L46.83,12.595 C46.045,12.595 45.655,12.14 45.655,11.23 L45.655,7.97 C45.655,7.06 46.045,6.605 46.83,6.605 L48.82,6.605 C48.915,6.605 48.965,6.65 48.965,6.745 L48.965,11.155 C48.965,11.615 48.85,11.97 48.62,12.22 Z M47.455,13.6 C48.185,13.6 48.67,13.325 48.905,12.77 L48.965,12.77 L48.965,13.38 C48.965,13.525 49.03,13.6 49.16,13.6 L49.8,13.6 C49.935,13.6 50,13.525 50,13.38 L50,5.82 C50,5.675 49.935,5.6 49.8,5.6 L46.72,5.6 C46.065,5.6 45.55,5.805 45.175,6.21 C44.8,6.62 44.615,7.19 44.615,7.92 L44.615,11.28 C44.615,12.01 44.8,12.58 45.175,12.99 C45.55,13.395 46.065,13.6 46.72,13.6 L47.455,13.6 Z" id="Shape" fill="#FFFFFF"></path>
                <path d="M51.54,13.38 L51.54,13.085 C51.54,12.895 51.59,12.73 51.69,12.595 L55.47,6.665 L55.47,6.605 L51.875,6.605 C51.73,6.605 51.66,6.525 51.66,6.37 L51.66,5.82 C51.66,5.675 51.73,5.6 51.875,5.6 L56.57,5.6 C56.725,5.6 56.8,5.675 56.8,5.82 L56.8,6.335 C56.8,6.525 56.755,6.665 56.665,6.76 L53.005,12.535 L53.005,12.595 L56.71,12.595 C56.85,12.595 56.925,12.675 56.925,12.83 L56.925,13.38 C56.925,13.525 56.85,13.6 56.71,13.6 L51.77,13.6 C51.615,13.6 51.54,13.525 51.54,13.38" id="Path" fill="#FFFFFF" fill-rule="nonzero"></path>
            </g>
        </g>
    </g>
</svg>
